X: 6228
T: Carmel Mahoney Mulhaire
R: reel
M: 4/4
K: Dmajor
[d3D3]B||AF~F2 DF~F2|A,F~F2 ABde|fdad [bd]/[bd]/d [ad]d|efge cABc|
d/d/dcd BAF(E|(3DED) CD dBcA|BG{A}GF GBed|(3cdeAc {de}dcdB|
AF~F2 DF~F2|A,F~F2 ABde|fdad bdad|g{a}g{f}ge cABc|
dcdc BAFE|((3DED) CD dBcA|BGAB GBed|ceAc [d2D2] (3a^g=g||
f2{a}fe fgfe|dff/f/f aff/f/f|afad' f'd'af|gefd ea^g=g|
f2{a}fe fgfe|df f/f/f af f/f/f|bgaf {a}gfed|ceAc [d2D2] ag|
f2 {a}fe fgfe|df~f2 af~f2|d'fad' f'd'af|gefd ea^g=g|
f2 {a} fe fgfe|df~f2 af~f2|bgaf {a}gfed|ceAc [d2D2] fg||
adfa b/b/bgb|af{a}f^e fgaf|gfe^d efg^g|ba{b}a^g a=gfg|
a/a/afa b/b/bgb|af{a}f^e fgaf|(3gag fg efde|cABc [dD]z (3fg^g|
adfa bdgb|af{a}f^e fgaf|gfe^d efg^g|ba{b}a^g a=gfg|
a/a/afa b/b/bgb|af{a}fe fgaf|gefd ecdB|cABc dB{d}BA||
[A2F2] (3AAA FADF|ADFA bafd|g{a}g{f}gf efde|ceBe ABGA|
[A2F2] (3AAA FA[DA][FA]|A[DA][AF][AF] bafd|g{a}g{f}gf efde|cABc [dD4]B{d}BA|
[A,2F2] (3AAA FADF|ADFA bafd|g{a}g{f}gf efde|ceBe ABGB|
[A2F2] (3AAA FADF|ADFA bafd|g{a}g{f}gf ezdB|AFGE [D4A,4]||

